svg/fluentui-system-icons/ic_fluent_battery_saver_24_filled.svg

<svg width="24" height="24" viewBox="0 0 24 24" fill="none" xmlns="http://www.w3.org/2000/svg">
<path d="M8.64506 4.36148C10.2094 7.21324 11.0038 9.50568 11.0038 11.0809C11.0038 12.6561 10.2599 13.9767 9.53777 14.6013C9.47995 14.6513 9.41475 14.6968 9.3422 14.7376L9.22783 14.7954C8.99949 14.8989 8.73047 14.7977 8.62694 14.5694C8.58849 14.4846 8.57735 14.3907 8.5938 14.3005L8.61945 14.212C9.23103 12.6972 9.52755 11.2078 9.5044 9.7477C9.49783 9.33354 9.15676 9.00312 8.7426 9.00969C8.344 9.01601 8.02297 9.33216 8.00526 9.72511L8.00898 9.74822C8.01459 10.118 7.99605 10.4916 7.9535 10.8689L7.88685 11.3456L7.84522 11.5826L7.77673 11.9126L7.67513 12.3252L7.63186 12.4808C7.4617 13.0831 7.23342 13.6944 6.94803 14.3142C6.18479 15.9718 4.86913 17.1889 3.036 17.9475C2.65326 18.1058 2.2146 17.924 2.05621 17.5412C1.89783 17.1585 2.0797 16.7198 2.46244 16.5615C3.42748 16.1621 4.19881 15.623 4.78587 14.9395C3.12274 14.4146 2.1553 13.2688 2.02314 11.6694C1.87359 9.85963 2.55515 8.63495 4.28321 7.25774L4.77375 6.88042L5.1287 6.61135L5.49817 6.32209C6.33102 5.64892 6.9558 4.98716 7.37465 4.34194C7.67579 3.87805 8.37649 3.8719 8.64506 4.36148ZM17 6.00052C18.5977 6.00052 19.9037 7.24944 19.9949 8.82424L20 9.00052V10.0005L21.0007 10.0184C21.1828 10.0184 21.3536 10.0671 21.5007 10.1522C21.7663 10.3058 21.9548 10.5783 21.9934 10.8969L22.0007 11.0184V13.0184C22.0007 13.3885 21.7996 13.7117 21.5007 13.8846C21.3903 13.9484 21.2667 13.9917 21.1349 14.0094L21.0007 14.0184L20 14.0005V15.0005C20 16.5982 18.7511 17.9042 17.1763 17.9954L17 18.0005H8.24254C7.69025 18.0005 7.24254 17.5528 7.24254 17.0005C7.24254 16.4877 7.62858 16.065 8.12592 16.0072L8.24254 16.0005H8.87269L8.94828 15.9948L9.0529 15.9762C9.79577 15.8136 12 14.7734 12 11.0184C12 9.80158 11.6982 8.45011 11.0945 6.96394C11.0605 6.88027 11.043 6.79082 11.043 6.70052C11.043 6.34614 11.3064 6.05328 11.648 6.00691L11.743 6.00052H17Z" fill="#212121"/>
</svg>

<svg xmlns="http://www.w3.org/2000/svg" width="24" height="24"><path d="M8.645 4.361c1.564 2.852 2.359 5.145 2.359 6.72 0 1.575-.744 2.896-1.466 3.52-.058.05-.123.096-.196.137l-.114.057a.454.454 0 0 1-.634-.495l.025-.088c.612-1.515.909-3.004.885-4.464a.75.75 0 0 0-1.499-.023l.004.023c.006.37-.013.744-.056 1.12l-.066.478-.042.237-.068.33-.102.412-.043.156a12.59 12.59 0 0 1-.684 1.833c-.763 1.658-2.079 2.875-3.912 3.634a.75.75 0 0 1-.574-1.387c.965-.399 1.737-.938 2.324-1.621-1.663-.525-2.63-1.671-2.763-3.27-.15-1.81.532-3.035 2.26-4.412l.49-.378.356-.269.37-.289c.832-.673 1.457-1.335 1.876-1.98.3-.464 1.001-.47 1.27.02ZM17 6.001a3 3 0 0 1 2.995 2.823l.005.177v1l1 .017a1 1 0 0 1 .993.879l.008.121v2a1 1 0 0 1-.866.991l-.134.01L20 14v1a3 3 0 0 1-2.824 2.994L17 18H8.243a1 1 0 0 1-.117-1.993L8.243 16h.63l.075-.005.105-.019C9.796 15.814 12 14.773 12 11.018c0-1.216-.302-2.568-.905-4.054a.7.7 0 0 1 .553-.957L11.743 6H17Z"/></svg>
